Catalina-light/actions/16/go-last.svg

<svg xmlns="http://www.w3.org/2000/svg" width="16" height="16" viewBox="0 0 16 16">
 <defs>
  <style id="current-color-scheme" type="text/css">
   .ColorScheme-Text { color:#5c616c; } .ColorScheme-Highlight { color:#5294e2; }
  </style>
 </defs>
 <path style="fill:currentColor" class="ColorScheme-Text" d="M 5.2207031 2 L 3.8144531 3.375 L 7.4707031 7.03125 L 0.001953125 7 L 0.001953125 9 L 7.4707031 9.03125 L 3.8144531 12.65625 L 5.2207031 14.03125 L 11.220703 8 L 5.2207031 2 z M 14.001953 6 C 12.897353 6 12.001953 6.89543 12.001953 8 C 12.001953 9.10457 12.897383 10 14.001953 10 C 15.106523 10 16.001953 9.10457 16.001953 8 C 16.001953 6.89543 15.106523 6 14.001953 6 z"/>
</svg>

<svg width="16" height="16" viewBox="0 0 16 16" xmlns="http://www.w3.org/2000/svg">
<defs>
<style id="current-color-scheme" type="text/css">.ColorScheme-Text { color:#5c616c; } .ColorScheme-Highlight { color:#5294e2; }</style>
</defs>
<path class="ColorScheme-Text" d="m5.2207 2-1.4062 1.375 3.6562 3.6562-7.4687-0.03125v2l7.4687 0.03125-3.6562 3.625 1.4062 1.375 6-6.0312-6-6zm8.7812 4c-1.1046 0-2 0.89543-2 2s0.89543 2 2 2 2-0.89543 2-2-0.89543-2-2-2z" fill="#363636"/>
</svg>
